X:1
T:Title
%%score ( 1 2 ) { 3 | 4 }
L:1/8
Q:1/4=145
M:6/4
K:A
V:1 treble nm="Grand Piano, Soprano"
V:2 treble 
V:3 bass nm="Choir Pad, O Tell Me More of Christ"
V:4 bass 
V:1
 [CE]2 [=C^D]2 [B,=D]2 [A,^C]6 | [CA]2 [DB]2 [CA]2 [DA]4 [DG]2 | [B,D]2 [B,D]2 [A,C]2 [G,B,]6 | %3
w: By~Peter~Philip~Bilhorn * * *|||
 [B,D]2[K:treble] [DG]2 [DF]2 [=CF]4 [^CE]2 | [CE]2 [=C^D]2 [B,=D]2 [A,^C]6 | %5
w: ||
 [EA]2 [GB]2 [=Gc]2 [Ge]4 [Fd]2 | [=CF]2 [CG]2 [CA]2 [Ec]6 | [DE]2 [DB]3 [DE] [CA]6 | %8
w: |||
 [^Ec]2 [Ec]2 [Ec]2 [Ec]6 | [^EG]2 [FA]2 [GB]2 [FA]6 | [FB]2 [FB]2 [FB]2 [FB]6 | %11
w: |||
 [^DF]2 [EG]2 [FA]2 [EG]6 | [DF]2 [DF]2 [DE]2 [CA]6 | A2 [GB]2 [=Gc]2 [Fd]6 | %14
w: |||
 [=CF]2 [CG]2 [CA]2 [Ec]6 | z6 A6- | A12 |] %17
w: |||
V:2
 x12 | x12 | x12 | x2[K:treble] x10 | x12 | x12 | x12 | x12 | x12 | x12 | x12 | x12 | x12 | x12 | %14
 x12 | [DE]2 [DB]3 [DE] C2 D=C ^C2- | C12 |] %17
V:3
 A,2 F,2 ^E,2 =E,6 | E,2 E,2 E,2 E,4 E,2 | G,2 G,2 E,2 E,6 | G,2 B,2 G,2 A,4 A,2 | %4
 A,2 F,2 ^E,2 =E,6 | C2 D2 EA, A,4[K:bass] A,2 | A,2 A,2 A,2 A,6 | G,2 G,3 G, A,6 | %8
 G,2 G,2 G,2 G,6 | C2 C2 C2 C6 | ^D2 D2 D2 D6 | B,2 B,2 B,2 B,6 | G,2 G,2 G,2 A,6 | C2 D2 EA, A,6 | %14
 A,2 A,2 A,2 A,6 | G,2 G,3 G, A,2 F,^E, =E,2- | E,12 |] %17
V:4
 A,,2 A,,2 A,,2 A,,6 | A,,2 G,,2 A,,2 B,,4 B,,2 | E,2 .E,4 z6 | E,2 E,2 E,2 ^D,4 E,2 | %4
 A,,2 A,,2 A,,2 A,,6 | A,2 E,2 A,,2 C,4 D,2 | ^D,2 D,2 D,2 E,6 | E,2 E,3 E, A,,6 | %8
 C,2 C,2 C,2 C,6 | C,2 C,2 C,2 F,6 | B,2 B,2 B,2 B,6 | B,,2 B,,2 B,,2 E,6 | E,2 E,2 E,2 A,,6 | %13
 A,2 E,2 A,,2 D,6 | ^D,2 D,2 D,2 E,6 | E,2 E,3 E, A,,6- | A,,12 |] %17

